modules/hawcons-stroke/icons/icon-20-clouds.svg

<?xml version="1.0" encoding="UTF-8" standalone="no"?>
<svg width="32px" height="32px" viewBox="0 0 32 32" version="1.1" xmlns="http://www.w3.org/2000/svg" xmlns:xlink="http://www.w3.org/1999/xlink" xmlns:sketch="http://www.bohemiancoding.com/sketch/ns">
    <!-- Generator: Sketch 3.0.3 (7891) - http://www.bohemiancoding.com/sketch -->
    <title>icon 20 clouds</title>
    <desc>Created with Sketch.</desc>
    <defs></defs>
    <g id="Page-1" stroke="none" stroke-width="1" fill="none" fill-rule="evenodd" sketch:type="MSPage">
        <g id="icon-20-clouds" sketch:type="MSArtboardGroup" fill="#929292">
            <path d="M8.26756436,24 L7.50643854,24 C6.67445551,24 6,24.6657972 6,25.5 C6,26.3284271 6.67154063,27 7.50643854,27 L15.4935615,27 C16.3255445,27 17,26.3342028 17,25.5 C17,24.6715729 16.3284594,24 15.4935615,24 L15,24 C15,22.8954304 14.1045696,22 13,22 C12.5883412,22 12.2057309,22.1243714 11.8876948,22.3375886 C11.6143423,21.5585717 10.8724019,21 10,21 C8.89543045,21 8,21.8954304 8,23 C8,23.3642872 8.09739427,23.7058266 8.26756436,24 L8.26756436,24 Z M15.8374098,23.0232669 C16.5163497,23.1159187 17.1077243,23.4790354 17.4996415,24 L24.9971835,24 C27.207878,24 29,22.2046438 29,20 C29,18.1225574 27.70144,16.5472159 25.9581226,16.1164746 L25.9581226,16.1164746 C25.9857342,15.9149284 26,15.7091302 26,15.5 C26,13.0147185 23.9852815,11 21.5,11 C20.2744589,11 19.1633432,11.489913 18.3518132,12.2845787 C17.3608691,10.3354059 15.336385,9 13,9 C9.68629134,9 7,11.6862913 7,15 C7,15.3764904 7.03467626,15.7448817 7.10100919,16.1021544 L7.10100919,16.1021544 C5.32460991,16.5117359 4,18.1046097 4,20 C4,21.4903318 4.81826628,22.7902996 6.02772155,23.4784802 L6.02772155,23.4784802 C6.3123039,23.2715905 6.64245106,23.1232597 7.00041797,23.0505909 C7.00013969,23.0337606 7,23.0168966 7,23 C7,21.3431457 8.34314567,20 10,20 C10.9268437,20 11.7555192,20.4203078 12.3058217,21.0807187 C12.5286313,21.0279355 12.7610533,21 13,21 C14.3148969,21 15.4322146,21.8459367 15.8374098,23.0232669 L15.8374098,23.0232669 L15.8374098,23.0232669 Z M5.34060548,24.2366682 C3.93316155,23.3520966 3,21.785321 3,20 C3,17.9491311 4.23965876,16.1816085 6.01189661,15.4115388 C6.00400207,15.275367 6,15.1381509 6,15 C6,11.1340066 9.13400656,8 13,8 C14.2883861,8 15.4954754,8.3480725 16.5323619,8.95531146 C16.8919502,8.49823548 17.4080996,8.17083407 18.000418,8.05059087 L18.000418,8.05059087 C18.0001397,8.0337606 18,8.01689661 18,8 C18,6.34314567 19.3431457,5 21,5 C21.9268437,5 22.7555192,5.42030784 23.3058217,6.08071872 C23.5286313,6.02793551 23.7610533,6 24,6 C25.3148969,6 26.4322146,6.84593672 26.8374098,8.02326686 L26.8374098,8.02326686 C28.0608812,8.19022851 29,9.2354757 29,10.5 C29,11.8903379 27.877788,13 26.4934692,13 L26.4002905,13 L26.4002905,13 C26.7715647,13.726287 26.9861178,14.545997 26.9993494,15.4145295 C28.7676457,16.1852931 30,17.9483386 30,20 C30,22.7558048 27.7616745,25 25.0005601,25 L17.9499649,25 C17.9827797,25.161555 18,25.3287671 18,25.5 C18,26.8903379 16.877788,28 15.4934692,28 L7.50653076,28 C6.11962422,28 5,26.8807119 5,25.5 C5,25.0376982 5.12407529,24.6064289 5.34060548,24.2366682 L5.34060548,24.2366682 L5.34060548,24.2366682 Z M25.742838,12 L26.4935615,12 C27.3255445,12 28,11.3342028 28,10.5 C28,9.67157288 27.3284594,9 26.4935615,9 L26,9 C26,7.89543045 25.1045696,7 24,7 C23.5883412,7 23.2057309,7.12437139 22.8876948,7.33758857 C22.6143423,6.55857166 21.8724019,6 21,6 C19.8954304,6 19,6.89543045 19,8 C19,8.36428715 19.0973943,8.70582664 19.2675644,9 L19.2675644,9 L18.5064385,9 C18.047734,9 17.6369137,9.20238541 17.3606114,9.52379686 L17.3606114,9.52379686 C17.8315673,9.89930719 18.2530004,10.3342981 18.6135384,10.8173973 C19.4525719,10.299097 20.441357,10 21.5,10 C23.2079371,10 24.7340464,10.7784966 25.742838,12 L25.742838,12 L25.742838,12 Z" id="clouds" sketch:type="MSShapeGroup"></path>
        </g>
    </g>
</svg>

<svg width="32" height="32" viewBox="0 0 32 32" xmlns="http://www.w3.org/2000/svg"><path d="M8.268 24h-.762a1.5 1.5 0 1 0 0 3h7.988a1.5 1.5 0 1 0 0-3H15a2 2 0 0 0-3.112-1.662A2 2 0 1 0 8.268 24zm7.57-.977c.678.093 1.27.456 1.662.977h7.497A4.004 4.004 0 0 0 29 20a4.006 4.006 0 0 0-3.042-3.884 4.5 4.5 0 0 0-7.606-3.832 6 6 0 0 0-11.25 3.818H7.1A4.006 4.006 0 0 0 4 20a4 4 0 0 0 2.028 3.478c.284-.206.614-.355.972-.427V23a3 3 0 0 1 5.306-1.92 3.001 3.001 0 0 1 3.532 1.943zM5.34 24.237A4.995 4.995 0 0 1 3 20c0-2.05 1.24-3.818 3.012-4.588a7 7 0 0 1 10.52-6.456A2.5 2.5 0 0 1 18 8.05V8a3 3 0 0 1 5.306-1.92 3.001 3.001 0 0 1 3.532 1.943A2.5 2.5 0 0 1 26.492 13H26.4c.372.726.586 1.546.6 2.415 1.768.77 3 2.533 3 4.585 0 2.756-2.238 5-5 5h-7.05a2.497 2.497 0 0 1-2.456 3H7.506a2.502 2.502 0 0 1-2.166-3.763zM25.743 12h.75a1.5 1.5 0 1 0 0-3H26a2 2 0 0 0-3.112-1.662A2 2 0 1 0 19.268 9h-.762c-.458 0-.87.202-1.145.524.47.375.892.81 1.253 1.293A5.474 5.474 0 0 1 21.5 10c1.708 0 3.234.778 4.243 2z" fill="#929292" fill-rule="evenodd"/></svg>
